assets/kitchen-grey/KitchenGrey2.svg

<svg xmlns="http://www.w3.org/2000/svg" data-name="Layer 1" viewBox="0 0 128 128"><path d="M106.422 54.764h-6.305a26.056 26.056 0 00-1.717-7.485 2.032 2.032 0 00-.49-1.17 26.523 26.523 0 00-5.447-7.9 26.248 26.248 0 00-18.594-7.732H71.5A7.5 7.5 0 0058.7 25.4l-.008.008a7.472 7.472 0 00-2.192 5.073h-2.369a26.248 26.248 0 00-18.594 7.732 26.514 26.514 0 00-5.448 7.9 2.037 2.037 0 00-.49 1.17 26.077 26.077 0 00-1.715 7.485h-6.306a2.043 2.043 0 100 4.086H27.8V84.9a19.949 19.949 0 0019.9 19.9h32.6a19.948 19.948 0 0019.9-19.9V58.85h6.226a2.043 2.043 0 000-4.086zM61.581 28.285a3.419 3.419 0 015.828 2.2h-6.817a3.41 3.41 0 01.989-2.2zM38.425 41.1a22.173 22.173 0 0115.706-6.534h19.738A22.173 22.173 0 0189.575 41.1a22.5 22.5 0 013.364 4.3H35.061a22.5 22.5 0 013.364-4.3zm57.684 43.8A15.86 15.86 0 0180.3 100.711H47.7A15.861 15.861 0 0131.891 84.9V56.807a22.03 22.03 0 011.246-7.319h61.726a22.025 22.025 0 011.246 7.319z"/></svg>

<svg id="Layer_1" data-name="Layer 1" xmlns="http://www.w3.org/2000/svg" viewBox="0 0 128 128"><title>Artboard 2</title><path d="M106.422,54.764h-6.305A26.056,26.056,0,0,0,98.4,47.279a2.032,2.032,0,0,0-.49-1.17,26.523,26.523,0,0,0-5.447-7.9,26.248,26.248,0,0,0-18.594-7.732H71.5A7.5,7.5,0,0,0,58.7,25.4l-.008.008A7.472,7.472,0,0,0,56.5,30.481H54.131a26.248,26.248,0,0,0-18.594,7.732,26.514,26.514,0,0,0-5.448,7.9,2.037,2.037,0,0,0-.49,1.17,26.077,26.077,0,0,0-1.715,7.485H21.578a2.043,2.043,0,1,0,0,4.086H27.8V84.9a19.949,19.949,0,0,0,19.9,19.9H80.3a19.948,19.948,0,0,0,19.9-19.9V58.85h6.226a2.043,2.043,0,0,0,0-4.086ZM61.581,28.285a3.419,3.419,0,0,1,5.828,2.2H60.592A3.41,3.41,0,0,1,61.581,28.285ZM38.425,41.1a22.173,22.173,0,0,1,15.706-6.534H73.869A22.173,22.173,0,0,1,89.575,41.1a22.5,22.5,0,0,1,3.364,4.3H35.061A22.5,22.5,0,0,1,38.425,41.1ZM96.109,84.9A15.86,15.86,0,0,1,80.3,100.711H47.7A15.861,15.861,0,0,1,31.891,84.9V56.807a22.03,22.03,0,0,1,1.246-7.319H94.863a22.025,22.025,0,0,1,1.246,7.319Z"/></svg>
